public/illustrations/_microscope.svg

<svg width="208" height="282" viewBox="0 0 208 282" fill="none" xmlns="http://www.w3.org/2000/svg">
<path d="M151.061 143.285C146.388 142.719 144.831 139.887 144.265 135.781C143.132 127.71 141.716 119.64 140.3 111.428H138.743C134.354 112.419 129.681 111.994 125.575 110.012C125.009 109.729 124.301 109.587 123.593 109.587C122.885 109.587 122.177 109.871 121.752 110.437C112.408 117.516 106.744 126.436 108.302 138.471C109.01 142.294 110.284 145.833 112.266 149.232C119.062 161.974 127.133 173.868 136.477 184.911C137.327 186.044 138.318 186.893 139.451 187.46C140.583 188.026 141.999 188.309 143.273 188.309C162.529 188.593 181.785 189.159 201.041 189.584C202.032 189.584 203.023 189.584 204.014 190.008C205.147 190.292 206.138 191 206.846 191.849C207.554 192.84 207.979 193.831 207.979 195.105C207.979 196.38 207.412 197.512 206.563 198.362C205.713 199.212 204.58 199.919 203.448 200.061C202.032 200.203 200.616 200.203 199.2 200.061L143.273 198.928H140.159C139.734 200.061 139.309 200.911 138.884 201.902C139.309 202.185 139.592 202.468 139.875 202.468C146.105 202.751 152.193 203.034 158.282 203.176C169.042 203.459 179.803 203.884 190.705 204.167C192.262 204.167 193.82 204.45 195.236 204.733C196.368 205.017 197.501 205.583 198.351 206.574C199.059 207.565 199.483 208.698 199.483 209.972C199.483 211.105 198.917 212.237 198.067 213.087C197.218 213.937 196.227 214.503 195.094 214.786C194.245 214.928 193.254 215.069 192.404 214.928L138.884 213.087C137.752 213.087 136.619 212.945 135.061 212.804L128.69 230.644C129.398 231.068 130.248 231.493 130.955 231.776L184.192 251.032C185.466 251.457 186.599 251.881 187.732 252.448C189.147 253.014 190.422 254.005 191.13 255.421C191.838 256.837 192.121 258.395 191.696 259.952C190.705 265.332 189.714 270.571 188.581 275.81C187.307 281.473 184.475 283.03 179.095 281.331C163.662 276.376 148.371 271.279 132.938 266.182L53.9324 240.271C46.4283 237.723 45.4372 236.165 47.561 228.378C47.9857 226.254 48.5521 224.131 49.26 222.148C52.3749 215.069 50.8175 207.848 49.8264 200.627C47.561 183.071 46.1451 165.372 47.7026 147.674C49.6848 125.02 57.7552 104.774 72.905 87.6416C78.1437 81.5534 84.9398 77.0228 92.4439 74.3326C101.081 71.2178 110.001 68.6692 118.779 65.979C120.053 65.5543 121.894 65.1294 122.885 65.6958C126.283 67.5364 129.256 66.2622 132.371 65.2711C132.371 64.9879 132.654 64.8464 132.654 64.5632C132.654 58.6166 133.787 56.9175 139.592 56.2096C149.079 54.9353 158.423 53.6611 167.768 52.3868C173.148 51.6789 175.272 53.2362 176.405 58.6165C179.52 73.3414 182.493 88.0665 185.466 102.65C187.024 110.012 188.44 117.233 189.855 124.596C190.563 127.994 191.13 131.392 187.59 134.082C187.024 134.507 186.882 135.923 186.882 136.914C186.882 139.321 187.024 141.727 186.882 144.276C186.882 148.099 185.325 150.081 181.643 150.789C174.422 152.205 167.343 153.621 160.122 154.895C156.441 155.461 153.892 153.904 152.618 150.364C151.91 148.382 151.344 146.258 150.494 143.71L151.061 143.285ZM114.39 78.0138C113.682 78.0138 112.974 78.1553 112.266 78.4385C106.319 80.5623 100.373 82.5446 94.5677 84.9516C88.7627 87.5001 83.6656 91.323 79.7011 96.2785C74.3209 102.65 69.7901 109.729 66.392 117.375C60.8701 129.976 58.0384 143.71 58.0384 157.444C58.0384 167.779 58.7463 178.257 59.4542 188.593C59.879 194.681 60.8701 200.769 61.7196 206.999L118.354 227.387C118.637 226.962 118.921 226.396 119.062 225.83C122.602 215.919 126 206.008 129.54 196.097C129.823 195.389 129.823 194.681 129.54 194.114C129.398 193.406 128.973 192.84 128.407 192.415C118.496 180.664 109.717 167.921 102.213 154.47C94.143 140.17 95.2756 123.888 105.611 111.287C108.443 107.747 111.841 104.49 114.673 101.517C113.965 97.6943 112.691 94.013 112.549 90.1902C112.549 86.509 113.54 82.403 114.107 78.1554L114.39 78.0138ZM58.4632 230.219L178.953 269.863L180.652 260.943C160.689 253.722 141.008 246.501 121.186 239.422C101.364 232.343 81.8249 224.98 61.7196 218.184C60.5869 222.29 59.5959 225.971 58.4632 230.077V230.219ZM144.265 65.8375C160.122 74.3326 162.388 93.3052 150.211 105.482C151.627 114.26 153.043 122.755 154.459 131.392L179.661 125.02C175.414 104.066 171.166 83.5356 166.918 62.864L144.265 65.979V65.8375ZM123.31 90.615C123.31 97.5528 130.389 103.074 138.176 100.384C141.291 99.1101 143.981 96.8448 145.539 93.7299C147.096 90.7566 147.663 87.2169 146.813 83.8188C146.388 81.8366 145.397 80.1376 144.123 78.7218C142.707 77.3059 141.008 76.1731 139.167 75.6068C137.327 75.0404 135.203 75.0405 133.362 75.4652C131.38 75.89 129.681 76.8811 128.265 78.297C125.009 81.1287 123.168 84.8099 123.31 90.4733V90.615ZM161.821 140.453C161.821 143.143 163.096 143.285 164.653 143.002C168.476 142.294 172.44 141.444 176.263 140.595C176.405 140.595 176.688 140.312 176.971 139.887L176.546 136.631L161.68 140.312L161.821 140.453Z" fill="#102185"/>
<path d="M29.8625 91.1813C26.8892 91.1813 24.907 89.1991 24.199 86.0842C23.3495 81.5535 22.2168 77.0227 20.9426 72.6335C18.6772 65.5542 14.8543 58.8997 9.7572 53.5194C7.77499 51.6788 5.79279 49.9798 3.5274 48.2808C-1.00337 44.7412 -1.14495 41.343 2.96106 37.3786C5.65121 34.6884 8.48293 31.9984 11.3147 29.3082C16.2702 24.3527 19.6683 18.123 21.0841 11.3269C21.6505 9.06151 22.0752 6.79603 22.7832 4.67224C23.7743 1.55734 25.7565 0 28.1634 0C30.5704 0 32.6942 1.84058 33.6854 5.09706C33.9685 6.37134 34.2517 7.64554 34.3933 8.91982C34.9596 12.7426 36.3755 16.4238 38.4993 19.6803C40.6231 22.9368 43.4548 25.6271 46.7113 27.6093C49.6846 29.4499 52.6579 31.1489 55.7728 32.7063C60.5868 35.2549 61.4363 38.7944 58.0382 43.042C55.9144 45.7322 53.7906 48.4224 51.3837 51.1125C44.0212 59.4661 38.6409 68.8108 36.9418 79.9961C36.5171 83.111 35.526 85.9427 33.9685 88.6328C33.5437 89.3408 32.8358 89.907 32.1279 90.3318C31.42 90.7566 30.5704 91.0397 29.7209 91.1813H29.8625ZM29.7209 65.6958C33.6853 55.5016 40.0567 47.856 46.8529 39.9272C38.924 36.5291 32.411 30.5825 28.1634 23.0784C24.7654 31.0072 19.3851 36.8123 13.2969 42.1925C20.8009 48.4223 25.6149 56.3511 29.7209 65.6958Z" fill="#102185"/>
</svg>

<svg xmlns="http://www.w3.org/2000/svg" width="208" height="282" fill="none" viewBox="0 0 208 282"><path fill="#102185" d="M151.061 143.285c-4.673-.566-6.23-3.398-6.796-7.504-1.133-8.071-2.549-16.141-3.965-24.353h-1.557c-4.389.991-9.062.566-13.168-1.416-.566-.283-1.274-.425-1.982-.425s-1.416.284-1.841.85c-9.344 7.079-15.008 15.999-13.45 28.034.708 3.823 1.982 7.362 3.964 10.761a203 203 0 0 0 24.211 35.679q1.275 1.699 2.974 2.549c1.132.566 2.548.849 3.822.849 19.256.284 38.512.85 57.768 1.275.991 0 1.982 0 2.973.424 1.133.284 2.124.992 2.832 1.841.708.991 1.133 1.982 1.133 3.256 0 1.275-.567 2.407-1.416 3.257-.85.85-1.983 1.557-3.115 1.699a21.2 21.2 0 0 1-4.248 0l-55.927-1.133h-3.114c-.425 1.133-.85 1.983-1.275 2.974.425.283.708.566.991.566 6.23.283 12.318.566 18.407.708 10.76.283 21.521.708 32.423.991 1.557 0 3.115.283 4.531.566 1.132.284 2.265.85 3.115 1.841.708.991 1.132 2.124 1.132 3.398 0 1.133-.566 2.265-1.416 3.115a6.3 6.3 0 0 1-2.973 1.699c-.849.142-1.84.283-2.69.142l-53.52-1.841c-1.132 0-2.265-.142-3.823-.283l-6.371 17.84c.708.424 1.558.849 2.265 1.132l53.237 19.256c1.274.425 2.407.849 3.54 1.416 1.415.566 2.69 1.557 3.398 2.973s.991 2.974.566 4.531c-.991 5.38-1.982 10.619-3.115 15.858-1.274 5.663-4.106 7.22-9.486 5.521-15.433-4.955-30.724-10.052-46.157-15.149l-79.006-25.911c-7.504-2.548-8.495-4.106-6.371-11.893.425-2.124.991-4.247 1.699-6.23 3.115-7.079 1.558-14.3.566-21.521-2.265-17.556-3.68-35.255-2.123-52.953 1.982-22.654 10.052-42.9 25.202-60.032 5.239-6.089 12.035-10.62 19.539-13.31 8.637-3.114 17.557-5.663 26.335-8.353 1.274-.425 3.115-.85 4.106-.283 3.398 1.84 6.371.566 9.486-.425 0-.283.283-.425.283-.708 0-5.946 1.133-7.646 6.938-8.353 9.487-1.275 18.831-2.549 28.176-3.823 5.38-.708 7.504.85 8.637 6.23 3.115 14.724 6.088 29.45 9.061 44.033 1.558 7.362 2.974 14.583 4.389 21.946.708 3.398 1.275 6.796-2.265 9.486-.566.425-.708 1.841-.708 2.832 0 2.407.142 4.813 0 7.362 0 3.823-1.557 5.805-5.239 6.513-7.221 1.416-14.3 2.832-21.521 4.106-3.681.566-6.23-.991-7.504-4.531-.708-1.982-1.274-4.106-2.124-6.654zM114.39 78.014q-1.062 0-2.124.425c-5.947 2.123-11.893 4.106-17.698 6.513C88.763 87.5 83.666 91.323 79.7 96.278c-5.38 6.372-9.91 13.451-13.309 21.097-5.522 12.601-8.354 26.335-8.354 40.069 0 10.335.708 20.813 1.416 31.149.425 6.088 1.416 12.176 2.266 18.406l56.634 20.388c.283-.425.567-.991.708-1.557 3.54-9.911 6.938-19.822 10.478-29.733.283-.708.283-1.416 0-1.983-.142-.708-.567-1.274-1.133-1.699-9.911-11.751-18.69-24.494-26.194-37.945-8.07-14.3-6.937-30.582 3.398-43.183 2.832-3.54 6.23-6.797 9.062-9.77-.708-3.823-1.982-7.504-2.124-11.327 0-3.681.991-7.787 1.558-12.035zM58.463 230.219l120.49 39.644 1.699-8.92c-19.963-7.221-39.644-14.442-59.466-21.521S81.825 224.98 61.72 218.184c-1.133 4.106-2.124 7.787-3.257 11.893zm85.802-164.381c15.857 8.495 18.123 27.467 5.946 39.644 1.416 8.778 2.832 17.273 4.248 25.91l25.202-6.372c-4.247-20.954-8.495-41.484-12.743-62.156l-22.653 3.115zM123.31 90.615c0 6.938 7.079 12.459 14.866 9.769 3.115-1.274 5.805-3.54 7.363-6.654 1.557-2.973 2.124-6.513 1.274-9.911-.425-1.982-1.416-3.681-2.69-5.097-1.416-1.416-3.115-2.549-4.956-3.115-1.84-.567-3.964-.567-5.805-.142-1.982.425-3.681 1.416-5.097 2.832-3.256 2.832-5.097 6.513-4.955 12.176zm38.511 49.838c0 2.69 1.275 2.832 2.832 2.549 3.823-.708 7.787-1.558 11.61-2.407.142 0 .425-.283.708-.708l-.425-3.256-14.866 3.681zM29.863 91.181c-2.974 0-4.956-1.982-5.664-5.097-.85-4.53-1.982-9.061-3.256-13.45-2.266-7.08-6.089-13.734-11.186-19.115-1.982-1.84-3.964-3.54-6.23-5.238-4.53-3.54-4.672-6.938-.566-10.902 2.69-2.69 5.522-5.38 8.354-8.07 4.955-4.956 8.353-11.186 9.77-17.982.566-2.265.99-4.531 1.698-6.655C23.774 1.557 25.756 0 28.163 0s4.531 1.84 5.522 5.097c.283 1.274.567 2.549.708 3.823A27 27 0 0 0 38.5 19.68a25.8 25.8 0 0 0 8.212 7.93c2.974 1.84 5.947 3.539 9.062 5.096 4.814 2.549 5.663 6.088 2.265 10.336-2.124 2.69-4.247 5.38-6.654 8.07-7.363 8.354-12.743 17.699-14.442 28.884-.425 3.115-1.416 5.947-2.974 8.637-.424.708-1.132 1.274-1.84 1.699s-1.558.708-2.407.85zm-.142-25.485c3.964-10.194 10.336-17.84 17.132-25.769-7.929-3.398-14.442-9.344-18.69-16.849-3.398 7.93-8.778 13.734-14.866 19.115C20.8 48.423 25.615 56.35 29.72 65.696"/></svg>
